X:9533
T:Les poules huppées
R:bourrée à 3 temps
C:trad
A:Centre
O:France
M:3/8
L:1/8
Q:1/8=220
K:F
DDF E/2D/2|A2 A/2=B/2|c/2=B/2A/2d/2 c/2B/2|c/2=B/2A/2B/2 A/2G/2|
DD/2F/2 E/2D/2|A2 A/2=B/2|c/2=B/2A/2d/2 B/2d/2|A2:|
|:d/2e/2|fA/2f e/2d/2|B2 d/2e/2|f/2d/2g/2f/2 e/2d/2|^cde|
fA/2f e/2d/2|G2 d/2e/2|f/2d/2g/2f/2 e/2^c/2|d2:||


